icons/svg/bug.svg

<svg width="24" height="24" viewBox="0 0 24 24" fill="none" xmlns="http://www.w3.org/2000/svg">
<path d="M7.5 9.08074C7.5 7.29644 8.94646 5.84998 10.7308 5.84998H13.2692C15.0535 5.84998 16.5 7.29644 16.5 9.08074V15.35C16.5 17.8353 14.4853 19.85 12 19.85V19.85C9.51472 19.85 7.5 17.8353 7.5 15.35V9.08074Z" stroke="currentColor" stroke-width="1.5" stroke-linecap="round" stroke-linejoin="round"/>
<path d="M16.5 12.85H21.25" stroke="currentColor" stroke-width="1.5" stroke-linecap="round" stroke-linejoin="round"/>
<path d="M2.75 12.85H7.5" stroke="currentColor" stroke-width="1.5" stroke-linecap="round" stroke-linejoin="round"/>
<path d="M9.75 3.15002V3.60002C9.75 4.84267 10.7574 5.85002 12 5.85002V5.85002C13.2426 5.85002 14.25 4.84266 14.25 3.60002V3.15002" stroke="currentColor" stroke-width="1.5" stroke-linecap="round" stroke-linejoin="round"/>
<path d="M16.5 16.6H17.7525C19.1332 16.6 20.2525 17.7193 20.2525 19.1V20.85" stroke="currentColor" stroke-width="1.5" stroke-linecap="round" stroke-linejoin="round"/>
<path d="M7.5 16.6H6.2475C4.86679 16.6 3.7475 17.7193 3.7475 19.1V20.85" stroke="currentColor" stroke-width="1.5" stroke-linecap="round" stroke-linejoin="round"/>
<path d="M16.5 9.09998H17.7525C19.1332 9.09998 20.2525 7.98069 20.2525 6.59998V4.84998" stroke="currentColor" stroke-width="1.5" stroke-linecap="round" stroke-linejoin="round"/>
<path d="M7.5 9.09998H6.2475C4.86679 9.09998 3.7475 7.98069 3.7475 6.59998V4.84998" stroke="currentColor" stroke-width="1.5" stroke-linecap="round" stroke-linejoin="round"/>
</svg>

<svg xmlns="http://www.w3.org/2000/svg" width="24" height="24" fill="none" viewBox="0 0 24 24"><path stroke="currentColor" stroke-linecap="round" stroke-linejoin="round" stroke-width="1.5" d="M7.5 9.08a3.23 3.23 0 0 1 3.23-3.23h2.54a3.23 3.23 0 0 1 3.23 3.23v6.27a4.5 4.5 0 0 1-4.5 4.5v0a4.5 4.5 0 0 1-4.5-4.5zm9 3.77h4.75m-18.5 0H7.5m2.25-9.7v.45A2.25 2.25 0 0 0 12 5.85v0a2.25 2.25 0 0 0 2.25-2.25v-.45M16.5 16.6h1.253a2.5 2.5 0 0 1 2.5 2.5v1.75M7.5 16.6H6.247a2.5 2.5 0 0 0-2.5 2.5v1.75M16.5 9.1h1.253a2.5 2.5 0 0 0 2.5-2.5V4.85M7.5 9.1H6.247a2.5 2.5 0 0 1-2.5-2.5V4.85"/></svg>
